P3
80 80
255
0 0 0  0 0 0  0 0 0  0 0 0  0 0 0  0 0 0
0 0 0  0 0 0  0 0 0  0 0 0  0 0 0  0 0 0
0 0 0  0 0 0  0 0 0  0 0 0  0 0 0  0 0 0
0 0 0  0 0 0  0 0 0  0 0 0  0 0 0  0 0 0
0 0 0  0 0 0  0 0 0  0 0 0  0 0 0  0 0 0
0 0 0  0 0 0  0 0 0  0 0 0  0 0 0  0 0 0
0 0 0  0 0 0  0 0 0  0 0 0  0 0 0  0 0 0
0 0 0  0 0 0  0 0 0  0 0 0  0 0 0  0 0 0
0 0 0  0 0 0  0 0 0  0 0 0  0 0 0  0 0 0
0 0 0  0 0 0  0 0 0  0 0 0  0 0 0  0 0 0
0 0 0  0 0 0  0 0 0  0 0 0  0 0 0  0 0 0
0 0 0  0 0 0  0 0 0  0 0 0  0 0 0  0 0 0
0 0 0  0 0 0  0 0 0  0 0 0  0 0 0  0 0 0
0 0 0  0 0 0
0 0 0  0 0 0  0 0 0  0 0 0  0 0 0  0 0 0
0 0 0  0 0 0  0 0 0  0 0 0  0 0 0  0 0 0
0 0 0  0 0 0  0 0 0  0 0 0  0 0 0  0 0 0
0 0 0  0 0 0  0 0 0  0 0 0  0 0 0  0 0 0
0 0 0  0 0 0  0 0 0  0 0 0  0 0 0  0 0 0
0 0 0  0 0 0  0 0 0  0 0 0  0 0 0  0 0 0
0 0 0  0 0 0  0 0 0  0 0 0  0 0 0  0 0 0
0 0 0  0 0 0  0 0 0  0 0 0  0 0 0  0 0 0
0 0 0  0 0 0  0 0 0  0 0 0  0 0 0  0 0 0
0 0 0  0 0 0  0 0 0  0 0 0  0 0 0  0 0 0
0 0 0  0 0 0  0 0 0  0 0 0  0 0 0  0 0 0
0 0 0  0 0 0  0 0 0  0 0 0  0 0 0  0 0 0
0 0 0  0 0 0  0 0 0  0 0 0  0 0 0  0 0 0
0 0 0  0 0 0
0 0 0  0 0 0  0 0 0  0 0 0  0 0 0  0 0 0
0 0 0  0 0 0  0 0 0  0 0 0  0 0 0  0 0 0
0 0 0  0 0 0  0 0 0  0 0 0  0 0 0  0 0 0
0 0 0  0 0 0  0 0 0  0 0 0  0 0 0  0 0 0
0 0 0  0 0 0  0 0 0  0 0 0  0 0 0  0 0 0
0 0 0  0 0 0  0 0 0  0 0 0  0 0 0  0 0 0
0 0 0  0 0 0  0 0 0  0 0 0  0 0 0  0 0 0
0 0 0  21 21 21  26 26 26  30 30 30  34 34 34  30 30 30
30 30 30  26 26 26  7 7 7  0 0 0  0 0 0  0 0 0
0 0 0  0 0 0  0 0 0  0 0 0  0 0 0  0 0 0
0 0 0  0 0 0  0 0 0  0 0 0  0 0 0  0 0 0
0 0 0  0 0 0  0 0 0  0 0 0  0 0 0  0 0 0
0 0 0  0 0 0  0 0 0  0 0 0  0 0 0  0 0 0
0 0 0  0 0 0
0 0 0  0 0 0  0 0 0  0 0 0  0 0 0  0 0 0
0 0 0  0 0 0  0 0 0  0 0 0  0 0 0  0 0 0
0 0 0  0 0 0  0 0 0  0 0 0  0 0 0  0 0 0
0 0 0  0 0 0  0 0 0  0 0 0  0 0 0  0 0 0
0 0 0  0 0 0  0 0 0  0 0 0  0 0 0  0 0 0
0 0 0  0 0 0  0 0 0  0 0 0  0 0 0  0 0 0
0 0 0  0 0 0  0 0 0  0 0 0  0 0 0  26 26 26
42 42 42  54 54 54  66 66 66  78 78 78  78 78 78  78 78 78
74 74 74  66 66 66  54 54 54  42 42 42  26 26 26  7 7 7
0 0 0  0 0 0  0 0 0  0 0 0  0 0 0  0 0 0
0 0 0  0 0 0  0 0 0  0 0 0  0 0 0  0 0 0
0 0 0  0 0 0  0 0 0  0 0 0  0 0 0  0 0 0
0 0 0  0 0 0  0 0 0  0 0 0  0 0 0  0 0 0
0 0 0  0 0 0
0 0 0  0 0 0  0 0 0  0 0 0  0 0 0  0 0 0
0 0 0  0 0 0  0 0 0  0 0 0  0 0 0  0 0 0
0 0 0  0 0 0  0 0 0  0 0 0  0 0 0  0 0 0
0 0 0  0 0 0  0 0 0  0 0 0  0 0 0  0 0 0
0 0 0  0 0 0  0 0 0  0 0 0  0 0 0  0 0 0
0 0 0  0 0 0  0 0 0  0 0 0  0 0 0  0 0 0
0 0 0  0 0 0  0 0 0  21 21 21  42 42 42  66 66 66
86 86 86  66 66 66  38 38 38  38 38 38  22 22 22  26 26 26
34 34 34  54 54 54  66 66 66  86 86 86  70 70 70  46 46 46
26 26 26  0 0 0  0 0 0  0 0 0  0 0 0  0 0 0
0 0 0  0 0 0  0 0 0  0 0 0  0 0 0  0 0 0
0 0 0  0 0 0  0 0 0  0 0 0  0 0 0  0 0 0
0 0 0  0 0 0  0 0 0  0 0 0  0 0 0  0 0 0
0 0 0  0 0 0
0 0 0  0 0 0  0 0 0  0 0 0  0 0 0  0 0 0
0 0 0  0 0 0  0 0 0  0 0 0  0 0 0  0 0 0
0 0 0  0 0 0  0 0 0  0 0 0  0 0 0  0 0 0
0 0 0  0 0 0  0 0 0  0 0 0  0 0 0  0 0 0
0 0 0  0 0 0  0 0 0  0 0 0  0 0 0  0 0 0
0 0 0  0 0 0  0 0 0  0 0 0  0 0 0  0 0 0
0 0 0  0 0 0  26 26 26  50 50 50  82 82 82  58 58 58
6 6 6  2 2 6  2 2 6  2 2 6  2 2 6  2 2 6
2 2 6  2 2 6  2 2 6  6 6 6  54 54 54  86 86 86
66 66 66  38 38 38  7 7 7  0 0 0  0 0 0  0 0 0
0 0 0  0 0 0  0 0 0  0 0 0  0 0 0  0 0 0
0 0 0  0 0 0  0 0 0  0 0 0  0 0 0  0 0 0
0 0 0  0 0 0  0 0 0  0 0 0  0 0 0  0 0 0
0 0 0  0 0 0
0 0 0  0 0 0  0 0 0  0 0 0  0 0 0  0 0 0
0 0 0  0 0 0  0 0 0  0 0 0  0 0 0  0 0 0
0 0 0  0 0 0  0 0 0  0 0 0  0 0 0  0 0 0
0 0 0  0 0 0  0 0 0  0 0 0  0 0 0  0 0 0
0 0 0  0 0 0  0 0 0  0 0 0  0 0 0  0 0 0
0 0 0  0 0 0  0 0 0  0 0 0  0 0 0  0 0 0
0 0 0  21 21 21  50 50 50  78 78 78  34 34 34  2 2 6
2 2 6  2 2 6  2 2 6  2 2 6  2 2 6  2 2 6
2 2 6  2 2 6  2 2 6  2 2 6  2 2 6  6 6 6
70 70 70  78 78 78  46 46 46  21 21 21  0 0 0  0 0 0
0 0 0  0 0 0  0 0 0  0 0 0  0 0 0  0 0 0
0 0 0  0 0 0  0 0 0  0 0 0  0 0 0  0 0 0
0 0 0  0 0 0  0 0 0  0 0 0  0 0 0  0 0 0
0 0 0  0 0 0
0 0 0  0 0 0  0 0 0  0 0 0  0 0 0  0 0 0
0 0 0  0 0 0  0 0 0  0 0 0  0 0 0  0 0 0
0 0 0  0 0 0  0 0 0  0 0 0  0 0 0  0 0 0
0 0 0  0 0 0  0 0 0  0 0 0  0 0 0  0 0 0
0 0 0  0 0 0  0 0 0  0 0 0  0 0 0  0 0 0
0 0 0  0 0 0  0 0 0  0 0 0  0 0 0  0 0 0
7 7 7  42 42 42  82 82 82  26 26 26  2 2 6  2 2 6
2 2 6  2 2 6  2 2 6  2 2 6  2 2 6  2 2 6
2 2 6  2 2 6  14 14 14  46 46 46  34 34 34  6 6 6
2 2 6  42 42 42  78 78 78  42 42 42  7 7 7  0 0 0
0 0 0  0 0 0  0 0 0  0 0 0  0 0 0  0 0 0
0 0 0  0 0 0  0 0 0  0 0 0  0 0 0  0 0 0
0 0 0  0 0 0  0 0 0  0 0 0  0 0 0  0 0 0
0 0 0  0 0 0
0 0 0  0 0 0  0 0 0  0 0 0  0 0 0  0 0 0
0 0 0  0 0 0  0 0 0  0 0 0  0 0 0  0 0 0
0 0 0  0 0 0  0 0 0  0 0 0  0 0 0  0 0 0
0 0 0  0 0 0  0 0 0  0 0 0  0 0 0  0 0 0
0 0 0  0 0 0  0 0 0  0 0 0  0 0 0  0 0 0
0 0 0  0 0 0  0 0 0  0 0 0  0 0 0  0 0 0
30 30 30  66 66 66  58 58 58  2 2 6  2 2 6  2 2 6
2 2 6  2 2 6  2 2 6  2 2 6  2 2 6  2 2 6
2 2 6  2 2 6  26 26 26  86 86 86  101 101 101  46 46 46
10 10 10  2 2 6  58 58 58  70 70 70  34 34 34  0 0 0
0 0 0  0 0 0  0 0 0  0 0 0  0 0 0  0 0 0
0 0 0  0 0 0  0 0 0  0 0 0  0 0 0  0 0 0
0 0 0  0 0 0  0 0 0  0 0 0  0 0 0  0 0 0
0 0 0  0 0 0
0 0 0  0 0 0  0 0 0  0 0 0  0 0 0  0 0 0
0 0 0  0 0 0  0 0 0  0 0 0  0 0 0  0 0 0
0 0 0  0 0 0  0 0 0  0 0 0  0 0 0  0 0 0
0 0 0  0 0 0  0 0 0  0 0 0  0 0 0  0 0 0
0 0 0  18 0 2  22 0 2  52 14 10  71 0 7  71 0 7
99 0 8  136 0 14  163 0 18  174 0 16  185 0 18  198 0 20
42 42 42  86 86 86  10 10 10  2 2 6  2 2 6  2 2 6
2 2 6  2 2 6  2 2 6  2 2 6  2 2 6  2 2 6
2 2 6  2 2 6  30 30 30  94 94 94  94 94 94  58 58 58
26 26 26  2 2 6  6 6 6  78 78 78  54 54 54  21 21 21
0 0 0  0 0 0  0 0 0  0 0 0  0 0 0  0 0 0
0 0 0  0 0 0  0 0 0  0 0 0  0 0 0  0 0 0
0 0 0  0 0 0  0 0 0  0 0 0  0 0 0  0 0 0
0 0 0  0 0 0
0 0 0  0 0 0  0 0 0  0 0 0  0 0 0  0 0 0
0 0 0  0 0 0  0 0 0  0 0 0  0 0 0  0 0 0
0 0 0  0 0 0  0 0 0  0 0 0  0 0 0  0 0 0
0 0 0  0 0 0  0 0 0  22 0 2  114 0 13  165 0 19
198 0 20  209 0 20  217 0 20  223 0 24  223 0 25  225 0 25
225 0 26  224 0 25  224 0 26  226 0 26  226 0 26  26 26 26
62 62 62  62 62 62  2 2 6  2 2 6  2 2 6  2 2 6
2 2 6  2 2 6  2 2 6  2 2 6  2 2 6  2 2 6
2 2 6  2 2 6  26 26 26  54 54 54  38 38 38  18 18 18
10 10 10  2 2 6  2 2 6  34 34 34  82 82 82  38 38 38
0 0 0  0 0 0  0 0 0  0 0 0  0 0 0  0 0 0
0 0 0  0 0 0  0 0 0  0 0 0  0 0 0  0 0 0
0 0 0  0 0 0  0 0 0  0 0 0  0 0 0  0 0 0
0 0 0  0 0 0
0 0 0  0 0 0  0 0 0  0 0 0  0 0 0  0 0 0
0 0 0  0 0 0  0 0 0  0 0 0  0 0 0  0 0 0
0 0 0  0 0 0  0 0 0  0 0 0  22 0 2  71 0 7
126 0 14  174 0 16  223 0 25  225 0 25  226 0 25  225 0 25
225 0 25  225 0 25  223 0 24  225 0 25  225 0 24  226 0 25
225 0 25  224 0 24  225 0 25  225 0 25  225 0 25  30 30 30
78 78 78  30 30 30  2 2 6  2 2 6  2 2 6  2 2 6
2 2 6  2 2 6  2 2 6  2 2 6  2 2 6  2 2 6
2 2 6  2 2 6  10 10 10  10 10 10  2 2 6  2 2 6
2 2 6  2 2 6  2 2 6  2 2 6  78 78 78  50 50 50
114 0 13  126 0 14  71 0 7  22 0 2  0 0 0  0 0 0
0 0 0  0 0 0  0 0 0  0 0 0  0 0 0  0 0 0
0 0 0  0 0 0  0 0 0  0 0 0  0 0 0  0 0 0
0 0 0  0 0 0
0 0 0  0 0 0  0 0 0  0 0 0  0 0 0  0 0 0
0 0 0  0 0 0  0 0 0  0 0 0  0 0 0  0 0 0
0 0 0  18 0 2  99 0 8  198 0 20  226 0 26  225 0 25
225 0 25  225 0 25  225 0 25  225 0 26  224 0 26  224 0 25
225 0 25  225 0 26  225 0 25  224 0 25  225 0 26  225 0 25
225 0 25  225 0 25  225 0 26  224 0 25  224 0 26  38 38 38
86 86 86  14 14 14  2 2 6  2 2 6  2 2 6  2 2 6
2 2 6  2 2 6  2 2 6  2 2 6  2 2 6  2 2 6
2 2 6  2 2 6  2 2 6  2 2 6  2 2 6  2 2 6
2 2 6  2 2 6  2 2 6  2 2 6  54 54 54  66 66 66
26 26 26  225 0 25  226 0 26  226 0 25  198 0 20  99 0 8
18 0 2  0 0 0  0 0 0  0 0 0  0 0 0  0 0 0
0 0 0  0 0 0  0 0 0  0 0 0  0 0 0  0 0 0
0 0 0  0 0 0
0 0 0  0 0 0  0 0 0  0 0 0  0 0 0  0 0 0
0 0 0  0 0 0  0 0 0  0 0 0  0 0 0  99 0 8
174 0 16  217 0 20  225 0 25  225 0 25  224 0 25  224 0 24
223 0 24  224 0 24  224 0 24  224 0 25  225 0 25  224 0 25
224 0 24  224 0 25  224 0 24  224 0 25  224 0 25  225 0 24
225 0 24  223 0 24  224 0 25  223 0 24  224 0 25  42 42 42
82 82 82  2 2 6  2 2 6  2 2 6  6 6 6  10 10 10
2 2 6  2 2 6  2 2 6  2 2 6  2 2 6  2 2 6
2 2 6  2 2 6  6 6 6  14 14 14  10 10 10  2 2 6
2 2 6  2 2 6  2 2 6  2 2 6  18 18 18  82 82 82
34 34 34  224 0 25  225 0 25  224 0 25  224 0 25  225 0 25
223 0 24  174 0 16  99 0 8  0 0 0  0 0 0  0 0 0
0 0 0  0 0 0  0 0 0  0 0 0  0 0 0  0 0 0
0 0 0  0 0 0
0 0 0  0 0 0  0 0 0  0 0 0  0 0 0  0 0 0
0 0 0  0 0 0  18 0 2  114 0 13  226 0 25  226 0 25
224 0 25  224 0 23  223 0 21  224 0 24  224 0 25  224 0 25
225 0 24  225 0 24  225 0 25  225 0 25  224 0 25  225 0 25
225 0 25  224 0 25  225 0 25  224 0 25  225 0 24  225 0 25
225 0 25  225 0 24  224 0 25  225 0 25  224 0 26  46 46 46
86 86 86  2 2 6  2 2 6  6 6 6  6 6 6  22 22 22
34 34 34  6 6 6  2 2 6  2 2 6  2 2 6  2 2 6
2 2 6  18 18 18  34 34 34  10 10 10  50 50 50  22 22 22
2 2 6  2 2 6  2 2 6  2 2 6  10 10 10  86 86 86
42 42 42  225 0 25  224 0 25  225 0 25  225 0 25  224 0 25
225 0 25  224 0 25  226 0 25  225 0 25  114 0 13  18 0 2
0 0 0  0 0 0  0 0 0  0 0 0  0 0 0  0 0 0
0 0 0  0 0 0
0 0 0  0 0 0  0 0 0  0 0 0  0 0 0  0 0 0
0 0 0  140 0 15  209 0 20  225 0 24  225 0 24  224 0 24
223 0 21  232 67 82  244 169 177  226 12 33  225 0 24  225 0 25
224 0 24  225 0 24  224 0 25  225 0 24  226 0 25  225 0 24
224 0 25  225 0 25  225 0 24  225 0 24  225 0 25  225 0 24
225 0 25  224 0 25  225 0 25  225 0 24  226 0 25  46 46 46
86 86 86  2 2 6  2 2 6  38 38 38  128 116 117  94 94 94
22 22 22  22 22 22  2 2 6  2 2 6  2 2 6  14 14 14
86 86 86  144 144 144  144 144 144  144 144 144  38 38 38  26 26 26
6 6 6  2 2 6  2 2 6  2 2 6  2 2 6  86 86 86
46 46 46  225 0 24  226 0 25  225 0 24  224 0 25  225 0 25
225 0 24  225 0 24  225 0 24  225 0 24  225 0 24  209 0 20
140 0 15  0 0 0  0 0 0  0 0 0  0 0 0  0 0 0
0 0 0  0 0 0
0 0 0  0 0 0  0 0 0  0 0 0  0 0 0  71 0 7
217 0 20  226 0 25  224 0 24  225 0 25  226 0 26  225 0 25
228 39 54  254 254 254  254 254 254  247 205 209  224 0 26  225 0 25
225 0 25  225 0 25  225 0 25  224 0 26  225 0 25  224 0 25
225 0 26  224 0 25  225 0 26  224 0 25  225 0 25  226 0 25
225 0 26  225 0 25  225 0 26  224 0 24  225 0 25  46 46 46
86 86 86  2 2 6  14 14 14  144 144 144  198 198 198  195 195 195
128 116 117  10 10 10  2 2 6  2 2 6  6 6 6  101 98 89
187 187 187  210 210 210  218 218 218  214 214 214  144 144 144  14 14 14
6 6 6  2 2 6  2 2 6  2 2 6  2 2 6  86 86 86
50 50 50  140 0 15  225 0 25  224 0 25  225 0 26  224 0 25
225 0 26  224 0 25  225 0 25  226 0 25  225 0 26  224 0 25
225 0 25  223 0 24  71 0 7  0 0 0  0 0 0  0 0 0
0 0 0  0 0 0
0 0 0  0 0 0  0 0 0  0 0 0  163 0 18  223 0 24
224 0 25  224 0 25  224 0 24  224 0 24  225 0 25  224 0 24
226 16 35  254 254 254  254 254 254  240 135 145  224 0 25  224 0 25
224 0 24  224 0 24  224 0 24  224 0 25  224 0 25  224 0 25
224 0 24  224 0 26  224 0 26  224 0 25  224 0 25  224 0 24
225 0 25  224 0 24  224 0 25  224 0 25  224 0 26  46 46 46
86 86 86  2 2 6  54 54 54  218 218 218  195 195 195  226 226 226
246 246 246  58 58 58  2 2 6  2 2 6  30 30 30  210 210 210
253 253 253  192 181 182  123 123 123  221 221 221  234 234 234  74 74 74
2 2 6  2 2 6  2 2 6  2 2 6  2 2 6  70 70 70
58 58 58  26 26 26  224 0 25  224 0 25  224 0 24  224 0 26
224 0 26  224 0 25  224 0 25  224 0 24  225 0 25  224 0 24
224 0 25  223 0 25  225 0 25  163 0 18  0 0 0  0 0 0
0 0 0  0 0 0
0 0 0  0 0 0  18 0 2  184 1 19  225 0 25  224 0 25
224 0 25  224 0 25  225 0 24  225 0 25  225 0 25  225 0 25
223 0 21  232 65 79  232 67 82  223 0 21  224 0 25  225 0 25
225 0 24  225 0 24  225 0 25  224 0 25  225 0 25  224 0 25
225 0 25  224 0 25  225 0 25  224 0 25  225 0 25  225 0 24
225 0 25  225 0 24  225 0 25  224 0 25  225 0 25  46 46 46
82 82 82  2 2 6  106 106 106  192 181 182  26 26 26  86 86 86
226 226 226  123 123 123  10 10 10  14 14 14  46 46 46  231 231 231
190 190 190  6 6 6  70 70 70  90 90 90  238 238 238  144 144 144
2 2 6  2 2 6  2 2 6  2 2 6  2 2 6  70 70 70
58 58 58  26 26 26  225 0 25  225 0 25  225 0 25  224 0 25
225 0 25  224 0 25  225 0 25  225 0 24  225 0 25  225 0 24
225 0 25  224 0 26  224 0 23  226 0 25  184 1 19  18 0 2
0 0 0  0 0 0
0 0 0  0 0 0  184 1 19  224 0 25  223 0 25  224 0 24
225 0 25  223 0 25  225 0 25  224 0 25  225 0 25  224 0 25
225 2 24  226 0 25  225 0 25  225 0 25  225 0 25  225 0 25
224 0 25  225 0 25  224 0 25  225 0 25  225 0 25  225 0 25
224 0 24  226 0 25  226 0 25  225 0 25  224 0 25  224 0 25
225 0 24  224 0 23  225 0 24  225 0 25  225 0 25  42 42 42
86 86 86  6 6 6  128 116 117  106 106 106  6 6 6  70 70 70
144 144 144  123 123 123  18 18 18  38 38 38  54 54 54  221 221 221
106 106 106  2 2 6  14 14 14  46 46 46  190 190 190  198 198 198
2 2 6  2 2 6  2 2 6  2 2 6  2 2 6  74 74 74
62 62 62  26 26 26  225 2 24  225 2 24  225 0 25  226 0 25
225 0 24  225 0 24  224 0 25  224 0 23  225 0 24  224 0 24
225 0 25  225 5 26  228 44 59  226 12 33  225 0 24  185 0 18
0 0 0  0 0 0
0 0 0  163 0 18  226 0 25  225 0 25  226 0 26  225 0 25
224 0 26  226 0 26  225 0 25  226 0 26  226 0 26  223 0 21
244 169 177  232 67 82  225 0 22  225 0 25  225 0 26  225 0 24
223 0 21  225 0 26  226 0 25  226 0 25  223 0 21  226 0 26
226 0 26  225 0 25  226 0 26  225 0 26  226 0 26  223 0 21
226 19 37  218 124 109  242 145 155  244 169 177  225 0 22  42 42 42
94 94 94  14 14 14  101 101 101  123 123 123  2 2 6  18 18 18
128 116 117  131 85 48  116 81 8  116 81 8  97 70 12  144 144 144
106 106 106  2 2 6  2 2 6  2 2 6  195 195 195  195 195 195
6 6 6  2 2 6  2 2 6  2 2 6  2 2 6  74 74 74
62 62 62  34 34 34  249 210 214  247 205 209  225 5 26  225 0 26
223 0 21  232 65 79  242 145 155  242 145 155  226 16 35  225 0 25
223 0 21  232 67 82  232 67 82  228 44 59  225 5 26  225 0 25
165 0 19  0 0 0
52 14 10  223 0 25  224 0 25  224 0 25  224 0 24  224 0 25
224 0 25  224 0 25  224 0 24  224 0 24  224 0 22  232 67 82
254 254 254  232 67 82  223 0 21  224 0 25  224 0 25  228 44 59
250 209 214  223 0 21  225 0 24  228 39 54  244 169 177  223 0 21
224 0 24  224 0 25  224 0 24  224 0 22  226 19 37  244 169 177
253 240 241  242 145 155  250 223 226  252 244 245  225 5 26  38 38 38
90 90 90  14 14 14  58 58 58  210 210 210  26 26 26  52 14 10
156 107 11  226 170 11  236 186 11  226 170 11  185 133 11  210 166 10
171 133 51  52 14 10  2 2 6  70 70 70  246 246 246  144 144 144
2 2 6  2 2 6  2 2 6  2 2 6  2 2 6  70 70 70
66 66 66  26 26 26  240 135 145  228 39 54  225 0 24  224 0 23
242 145 155  254 254 254  250 223 226  252 236 238  251 232 234  225 5 26
223 0 21  232 67 82  218 124 109  228 39 54  225 5 26  224 0 26
223 0 25  52 14 10
140 0 15  225 0 26  225 0 24  225 0 25  225 0 24  224 0 25
224 0 25  224 0 24  224 0 24  226 0 26  226 19 37  252 241 242
254 254 254  226 19 37  224 0 24  224 0 25  223 0 21  244 169 177
252 241 242  225 2 24  226 12 33  251 232 234  254 254 254  232 67 82
225 0 22  224 0 25  225 0 26  228 44 59  253 247 248  242 145 155
224 4 24  223 0 21  254 251 251  247 205 209  223 0 21  38 38 38
86 86 86  14 14 14  10 10 10  195 195 195  189 148 113  192 133 9
226 170 11  239 182 13  236 186 11  232 195 16  232 195 16  246 215 42
241 208 19  232 195 16  185 133 11  241 192 135  202 202 202  42 42 42
2 2 6  2 2 6  2 2 6  2 2 6  2 2 6  50 50 50
74 74 74  30 30 30  224 0 22  224 0 24  223 0 21  240 135 145
255 255 255  240 135 145  225 5 26  223 0 21  251 232 234  232 65 79
225 0 22  225 5 26  228 44 59  226 12 33  225 0 24  224 0 24
224 0 25  140 0 15
207 0 22  224 0 25  225 0 25  225 0 25  225 0 25  224 0 25
224 0 25  225 0 25  225 0 25  225 0 22  247 195 201  250 227 226
252 244 245  223 0 21  225 0 26  223 0 21  232 65 79  255 255 255
252 241 242  225 0 22  218 124 109  254 254 254  255 255 255  249 210 214
223 0 21  225 0 26  223 0 21  251 232 234  244 169 177  223 0 21
225 0 22  232 67 82  254 254 254  240 135 145  223 0 21  34 34 34
86 86 86  14 14 14  2 2 6  120 82 21  192 133 9  219 162 10
239 182 13  236 186 11  232 195 16  241 208 19  246 218 60  246 218 60
246 215 42  241 208 19  241 208 19  241 208 19  226 184 21  120 82 21
2 2 6  2 2 6  2 2 6  2 2 6  2 2 6  50 50 50
82 82 82  34 34 34  226 0 25  225 0 25  226 16 35  255 255 255
250 223 226  223 0 21  226 0 25  223 0 21  244 169 177  232 67 82
223 0 21  225 0 24  225 0 24  225 0 25  224 0 24  224 0 26
224 0 24  207 0 22
225 0 25  224 0 25  225 0 26  225 0 25  226 0 26  224 0 25
224 0 26  226 0 26  225 2 24  247 195 201  247 195 201  240 135 145
250 227 226  223 0 21  225 0 26  226 19 37  253 249 249  250 227 226
253 249 249  218 124 109  255 255 255  255 255 255  249 210 214  252 244 245
226 19 37  225 0 22  218 124 109  254 251 251  223 0 21  226 0 26
226 19 37  252 244 245  255 255 255  232 67 82  223 0 21  34 34 34
82 82 82  30 30 30  88 42 13  185 133 11  206 145 10  230 174 11
239 182 13  236 186 11  241 196 14  241 208 19  246 218 60  246 215 42
241 208 19  241 208 19  241 208 19  226 184 21  210 166 10  185 133 11
6 6 6  2 2 6  2 2 6  2 2 6  2 2 6  26 26 26
94 94 94  42 42 42  226 0 25  224 0 24  240 135 145  255 255 255
226 19 37  225 0 25  226 0 26  223 0 21  250 227 226  228 44 59
225 0 24  224 0 26  225 0 26  226 0 25  225 0 25  225 0 25
225 0 26  226 0 26
207 0 22  225 0 25  225 0 25  224 0 25  225 0 25  225 0 25
225 0 26  223 0 21  232 67 82  240 135 145  223 0 21  247 195 201
247 205 209  223 0 21  228 39 54  251 232 234  218 124 109  240 135 145
255 255 255  255 255 255  253 247 248  228 44 59  228 39 54  254 254 254
232 65 79  225 5 26  251 232 234  252 244 245  228 39 54  240 135 145
251 232 234  247 205 209  255 255 255  228 39 54  217 0 20  30 30 30
78 78 78  50 50 50  104 69 6  192 133 9  216 158 10  236 178 12
236 186 11  232 195 16  241 208 19  246 218 60  246 215 42  241 208 19
241 208 19  241 208 19  200 144 11  200 144 11  216 158 10  163 110 8
2 2 6  2 2 6  2 2 6  2 2 6  2 2 6  6 6 6
90 90 90  54 54 54  140 0 15  218 124 109  254 251 251  252 241 242
225 5 26  224 0 26  224 0 23  232 65 79  252 244 245  225 5 26
225 0 26  224 0 25  224 0 25  225 0 24  225 0 24  224 0 26
225 0 25  207 0 22
140 0 15  225 0 26  225 0 25  224 0 25  224 0 25  225 0 26
224 0 26  225 0 26  223 0 21  225 0 22  225 0 22  249 210 214
250 227 226  228 39 54  253 249 249  244 169 177  224 0 22  244 169 177
253 253 253  255 255 255  218 124 109  225 0 24  223 0 21  253 240 241
244 169 177  218 124 109  252 236 238  254 254 254  255 255 255  252 236 238
228 39 54  244 169 177  255 255 255  226 16 35  223 0 21  30 30 30
78 78 78  46 46 46  22 22 22  151 92 20  210 166 10  239 182 13
236 186 11  241 196 14  241 208 19  241 208 19  241 208 19  241 208 19
210 166 10  185 133 11  210 150 10  216 158 10  210 150 10  97 70 12
2 2 6  6 6 6  54 54 54  14 14 14  2 2 6  2 2 6
62 62 62  74 74 74  30 30 30  250 223 226  240 135 145  255 255 255
232 67 82  225 5 26  228 39 54  252 244 245  240 135 145  225 0 25
226 0 25  224 0 25  224 0 25  225 0 24  225 0 24  225 0 25
224 0 24  140 0 15
52 14 10  223 0 25  225 0 25  225 0 26  225 0 25  225 0 25
224 0 25  226 0 25  225 0 25  226 0 26  225 0 22  249 210 214
255 255 255  255 255 255  242 145 155  223 0 21  224 0 24  244 169 177
254 255 254  240 135 145  223 0 21  226 0 25  223 0 21  240 135 145
255 255 255  249 210 214  226 19 37  244 169 177  232 67 82  226 12 33
223 0 21  247 195 201  255 255 255  228 39 54  250 209 214  34 34 34
78 78 78  50 50 50  6 6 6  86 66 32  151 92 20  200 144 11
226 184 21  232 195 16  232 195 16  210 166 10  200 144 11  167 114 7
192 133 9  210 150 10  213 154 11  185 146 29  172 157 108  101 98 89
2 2 6  2 2 6  78 78 78  128 116 117  58 58 58  2 2 6
22 22 22  90 90 90  46 46 46  140 0 15  224 4 24  255 254 255
254 254 255  251 232 234  255 255 255  240 135 145  225 0 22  225 0 25
225 0 25  225 0 26  226 0 26  226 0 25  225 0 25  225 0 26
223 0 24  52 14 10
0 0 0  165 0 19  225 0 25  224 0 25  225 0 25  225 0 25
225 0 26  226 0 26  225 0 24  225 0 25  223 0 21  247 195 201
253 247 248  240 135 145  223 0 21  225 0 26  225 0 24  244 169 177
247 195 201  225 5 26  225 0 26  225 0 25  225 0 25  226 19 37
255 255 255  232 67 82  225 0 24  223 0 21  223 0 21  224 0 22
228 44 59  251 232 234  255 255 255  252 244 245  232 67 82  38 38 38
86 86 86  50 50 50  6 6 6  123 123 123  172 157 108  156 107 11
167 114 7  200 144 11  185 133 11  197 138 11  200 144 11  206 145 10
206 145 10  197 138 11  189 148 113  195 195 195  198 198 198  192 181 182
14 14 14  2 2 6  22 22 22  128 116 117  128 116 117  22 22 22
2 2 6  74 74 74  70 70 70  30 30 30  225 0 24  226 19 37
242 145 155  240 135 145  228 39 54  223 0 21  225 0 26  225 0 25
225 0 25  225 0 25  225 0 25  225 0 25  225 0 25  225 0 26
165 0 19  0 0 0
0 0 0  0 0 0  185 0 18  224 0 24  226 0 25  224 0 24
225 0 25  226 0 26  224 0 24  225 0 25  225 0 24  226 16 35
226 16 35  225 0 25  225 0 26  225 0 25  225 0 25  226 19 37
225 2 24  225 0 24  225 0 25  225 0 25  225 0 26  225 0 25
228 39 54  225 0 22  225 0 26  223 0 21  232 65 79  250 223 226
253 249 249  253 253 253  255 255 255  225 5 26  140 0 15  50 50 50
101 101 101  26 26 26  10 10 10  144 144 144  190 190 190  172 157 108
156 107 11  197 138 11  200 144 11  197 138 11  192 133 9  185 133 11
185 146 29  202 170 152  187 187 187  202 202 202  221 221 221  214 214 214
66 66 66  2 2 6  2 2 6  50 50 50  62 62 62  6 6 6
2 2 6  10 10 10  90 90 90  50 50 50  140 0 15  225 0 25
225 0 24  225 0 24  225 0 24  225 0 25  225 0 26  225 0 25
225 0 25  225 0 24  225 0 25  225 0 24  224 0 24  185 0 18
0 0 0  0 0 0
0 0 0  0 0 0  22 0 2  185 0 18  224 0 24  225 0 25
225 0 25  226 0 26  225 0 24  226 0 26  225 0 25  226 0 25
226 0 26  225 0 25  226 0 26  225 0 25  226 0 26  225 0 25
226 0 25  225 0 25  225 0 25  226 0 25  225 0 25  226 0 26
224 0 24  226 0 25  225 5 26  244 169 177  255 255 255  242 145 155
226 19 37  252 244 245  251 232 234  223 0 21  34 34 34  74 74 74
74 74 74  2 2 6  6 6 6  144 144 144  198 198 198  190 190 190
183 154 131  154 122 43  156 107 11  156 107 11  171 133 51  172 157 108
187 187 187  190 190 190  210 210 210  246 246 246  253 253 253  253 253 253
187 187 187  6 6 6  2 2 6  2 2 6  2 2 6  2 2 6
2 2 6  2 2 6  62 62 62  74 74 74  34 34 34  225 0 25
224 0 25  225 0 25  226 0 26  225 0 25  226 0 26  224 0 25
225 0 25  226 0 26  226 0 26  226 0 25  198 0 20  22 0 2
0 0 0  0 0 0
0 0 0  0 0 0  0 0 0  0 0 0  184 1 19  226 0 25
225 0 26  225 0 26  223 0 24  224 0 25  224 0 25  225 0 25
225 0 25  224 0 26  225 0 25  225 0 25  225 0 25  225 0 25
223 0 25  223 0 24  225 0 25  225 0 25  225 0 26  224 0 24
226 0 25  224 0 22  250 223 226  254 254 254  218 124 109  223 0 21
228 39 54  253 247 248  244 169 177  26 26 26  54 54 54  94 94 94
18 18 18  2 2 6  46 46 46  234 234 234  221 221 221  190 190 190
190 190 190  190 190 190  187 187 187  187 187 187  190 190 190  190 190 190
195 195 195  214 214 214  242 242 242  253 253 253  253 253 253  253 253 253
253 253 253  82 82 82  2 2 6  2 2 6  2 2 6  2 2 6
2 2 6  2 2 6  14 14 14  86 86 86  54 54 54  26 26 26
225 0 25  225 0 25  224 0 24  225 0 24  225 0 25  224 0 24
225 0 25  224 0 25  225 0 24  184 1 19  0 0 0  0 0 0
0 0 0  0 0 0
0 0 0  0 0 0  0 0 0  0 0 0  0 0 0  99 0 8
226 0 26  225 0 25  224 0 25  224 0 25  224 0 25  225 0 25
225 0 25  225 0 26  224 0 25  224 0 25  224 0 25  224 0 25
224 0 25  224 0 25  224 0 25  224 0 25  224 0 25  224 0 26
224 0 25  228 39 54  253 249 249  244 169 177  223 0 21  224 0 26
232 67 82  254 254 254  150 87 55  46 46 46  90 90 90  46 46 46
18 18 18  6 6 6  187 187 187  253 253 253  246 246 246  206 206 206
190 190 190  190 190 190  190 190 190  190 190 190  190 190 190  206 206 206
231 231 231  250 250 250  253 253 253  253 253 253  253 253 253  253 253 253
253 253 253  202 202 202  14 14 14  2 2 6  2 2 6  2 2 6
2 2 6  2 2 6  2 2 6  42 42 42  86 86 86  42 42 42
140 0 15  224 0 25  225 0 25  224 0 25  224 0 25  223 0 24
226 0 25  225 0 25  99 0 8  0 0 0  0 0 0  0 0 0
0 0 0  0 0 0
0 0 0  0 0 0  0 0 0  0 0 0  0 0 0  0 0 0
18 0 2  174 0 16  223 0 25  225 0 25  224 0 25  225 0 25
224 0 26  224 0 26  224 0 25  224 0 25  224 0 25  224 0 26
224 0 24  225 0 24  224 0 25  224 0 25  225 0 26  224 0 25
225 0 26  228 44 59  253 247 248  240 135 145  224 0 25  223 0 21
242 145 155  255 255 255  38 38 38  74 74 74  66 66 66  2 2 6
6 6 6  90 90 90  250 250 250  253 253 253  253 253 253  238 238 238
198 198 198  190 190 190  190 190 190  195 195 195  221 221 221  246 246 246
253 253 253  253 253 253  253 253 253  253 253 253  253 253 253  253 253 253
253 253 253  253 253 253  82 82 82  2 2 6  2 2 6  2 2 6
2 2 6  2 2 6  2 2 6  2 2 6  78 78 78  70 70 70
34 34 34  224 0 25  224 0 25  226 0 25  225 0 26  223 0 25
174 0 16  18 0 2  0 0 0  0 0 0  0 0 0  0 0 0
0 0 0  0 0 0
0 0 0  0 0 0  0 0 0  0 0 0  0 0 0  0 0 0
0 0 0  0 0 0  22 0 2  174 0 16  225 0 25  224 0 25
224 0 26  224 0 26  224 0 25  224 0 25  224 0 26  224 0 24
224 0 25  225 0 24  224 0 25  224 0 25  225 0 26  223 0 25
225 0 26  228 44 59  253 249 249  218 124 109  225 0 26  225 2 24
255 255 255  34 34 34  66 66 66  78 78 78  6 6 6  2 2 6
18 18 18  218 218 218  253 253 253  253 253 253  253 253 253  253 253 253
246 246 246  226 226 226  231 231 231  246 246 246  253 253 253  253 253 253
253 253 253  253 253 253  253 253 253  253 253 253  253 253 253  253 253 253
253 253 253  253 253 253  192 181 182  2 2 6  2 2 6  2 2 6
2 2 6  2 2 6  2 2 6  2 2 6  18 18 18  90 90 90
62 62 62  30 30 30  225 0 25  226 0 25  174 0 16  22 0 2
0 0 0  0 0 0  0 0 0  0 0 0  0 0 0  0 0 0
0 0 0  0 0 0
0 0 0  0 0 0  0 0 0  0 0 0  0 0 0  0 0 0
0 0 0  0 0 0  0 0 0  0 0 0  52 14 10  147 0 16
207 0 22  225 0 25  225 0 25  224 0 25  224 0 24  224 0 25
224 0 24  225 0 25  224 0 24  224 0 25  224 0 25  224 0 25
224 0 25  226 19 37  252 244 245  240 135 145  223 0 21  242 145 155
26 26 26  58 58 58  90 90 90  18 18 18  2 2 6  2 2 6
106 106 106  253 253 253  253 253 253  253 253 253  253 253 253  253 253 253
253 253 253  250 250 250  253 253 253  253 253 253  253 253 253  253 253 253
253 253 253  253 253 253  253 253 253  253 253 253  253 253 253  253 253 253
253 253 253  253 253 253  231 231 231  18 18 18  2 2 6  2 2 6
2 2 6  2 2 6  2 2 6  2 2 6  2 2 6  18 18 18
94 94 94  54 54 54  26 26 26  52 14 10  0 0 0  0 0 0
0 0 0  0 0 0  0 0 0  0 0 0  0 0 0  0 0 0
0 0 0  0 0 0
0 0 0  0 0 0  0 0 0  0 0 0  0 0 0  0 0 0
0 0 0  0 0 0  0 0 0  0 0 0  0 0 0  0 0 0
0 0 0  71 0 7  185 0 18  225 0 25  225 0 25  225 0 24
224 0 24  224 0 24  225 0 24  224 0 25  225 0 25  224 0 24
225 0 24  223 0 21  240 135 145  255 255 255  247 195 201  38 38 38
50 50 50  90 90 90  26 26 26  2 2 6  2 2 6  14 14 14
195 195 195  250 250 250  253 253 253  253 253 253  253 253 253  253 253 253
253 253 253  253 253 253  253 253 253  253 253 253  253 253 253  253 253 253
253 253 253  253 253 253  253 253 253  253 253 253  253 253 253  253 253 253
253 253 253  250 250 250  242 242 242  54 54 54  2 2 6  2 2 6
2 2 6  2 2 6  2 2 6  2 2 6  2 2 6  2 2 6
38 38 38  86 86 86  50 50 50  21 21 21  0 0 0  0 0 0
0 0 0  0 0 0  0 0 0  0 0 0  0 0 0  0 0 0
0 0 0  0 0 0
0 0 0  0 0 0  0 0 0  0 0 0  0 0 0  0 0 0
0 0 0  0 0 0  0 0 0  0 0 0  0 0 0  0 0 0
0 0 0  0 0 0  0 0 0  22 0 2  71 0 7  140 0 15
198 0 20  224 0 25  226 0 25  226 0 26  224 0 25  225 0 25
224 0 25  225 0 26  223 0 21  232 67 82  218 124 109  38 38 38
82 82 82  34 34 34  2 2 6  2 2 6  2 2 6  42 42 42
195 195 195  246 246 246  253 253 253  253 253 253  253 253 253  253 253 253
250 250 250  242 242 242  242 242 242  250 250 250  253 253 253  253 253 253
253 253 253  253 253 253  253 253 253  253 253 253  250 250 250  246 246 246
238 238 238  226 226 226  231 231 231  101 101 101  6 6 6  2 2 6
2 2 6  2 2 6  2 2 6  2 2 6  2 2 6  2 2 6
2 2 6  38 38 38  82 82 82  42 42 42  0 0 0  0 0 0
0 0 0  0 0 0  0 0 0  0 0 0  0 0 0  0 0 0
0 0 0  0 0 0
0 0 0  0 0 0  0 0 0  0 0 0  0 0 0  0 0 0
0 0 0  0 0 0  0 0 0  0 0 0  0 0 0  0 0 0
0 0 0  0 0 0  0 0 0  0 0 0  0 0 0  0 0 0
0 0 0  22 0 2  99 0 8  174 0 16  209 0 20  217 0 20
223 0 25  224 0 25  224 0 25  225 0 25  26 26 26  62 62 62
66 66 66  2 2 6  2 2 6  2 2 6  6 6 6  70 70 70
192 181 182  206 206 206  234 234 234  246 246 246  250 250 250  250 250 250
238 238 238  226 226 226  231 231 231  238 238 238  250 250 250  250 250 250
250 250 250  246 246 246  231 231 231  214 214 214  206 206 206  202 202 202
202 202 202  198 198 198  202 202 202  187 187 187  18 18 18  2 2 6
2 2 6  2 2 6  2 2 6  2 2 6  2 2 6  2 2 6
2 2 6  2 2 6  62 62 62  66 66 66  30 30 30  0 0 0
0 0 0  0 0 0  0 0 0  0 0 0  0 0 0  0 0 0
0 0 0  0 0 0
0 0 0  0 0 0  0 0 0  0 0 0  0 0 0  0 0 0
0 0 0  0 0 0  0 0 0  0 0 0  0 0 0  0 0 0
0 0 0  0 0 0  0 0 0  0 0 0  0 0 0  0 0 0
0 0 0  0 0 0  0 0 0  0 0 0  0 0 0  22 0 2
52 14 10  71 0 7  99 0 8  140 0 15  42 42 42  82 82 82
18 18 18  2 2 6  2 2 6  2 2 6  10 10 10  94 94 94
187 187 187  218 218 218  242 242 242  250 250 250  253 253 253  253 253 253
250 250 250  234 234 234  253 253 253  253 253 253  253 253 253  253 253 253
253 253 253  253 253 253  246 246 246  238 238 238  226 226 226  210 210 210
202 202 202  195 195 195  195 195 195  210 210 210  144 144 144  6 6 6
14 14 14  50 50 50  14 14 14  2 2 6  2 2 6  2 2 6
2 2 6  2 2 6  6 6 6  86 86 86  46 46 46  7 7 7
0 0 0  0 0 0  0 0 0  0 0 0  0 0 0  0 0 0
0 0 0  0 0 0
0 0 0  0 0 0  0 0 0  0 0 0  0 0 0  0 0 0
0 0 0  0 0 0  0 0 0  0 0 0  0 0 0  0 0 0
0 0 0  0 0 0  0 0 0  0 0 0  0 0 0  0 0 0
0 0 0  0 0 0  0 0 0  0 0 0  0 0 0  0 0 0
0 0 0  0 0 0  0 0 0  21 21 21  54 54 54  70 70 70
2 2 6  2 2 6  10 10 10  2 2 6  22 22 22  192 181 182
231 231 231  250 250 250  253 253 253  253 253 253  253 253 253  253 253 253
250 250 250  242 242 242  253 253 253  253 253 253  253 253 253  253 253 253
253 253 253  253 253 253  253 253 253  253 253 253  253 253 253  253 253 253
246 246 246  231 231 231  206 206 206  198 198 198  226 226 226  94 94 94
2 2 6  6 6 6  38 38 38  30 30 30  2 2 6  2 2 6
2 2 6  2 2 6  2 2 6  62 62 62  66 66 66  26 26 26
0 0 0  0 0 0  0 0 0  0 0 0  0 0 0  0 0 0
0 0 0  0 0 0
0 0 0  0 0 0  0 0 0  0 0 0  0 0 0  0 0 0
0 0 0  0 0 0  0 0 0  0 0 0  0 0 0  0 0 0
0 0 0  0 0 0  0 0 0  0 0 0  0 0 0  0 0 0
0 0 0  0 0 0  0 0 0  0 0 0  0 0 0  0 0 0
0 0 0  0 0 0  0 0 0  30 30 30  74 74 74  50 50 50
2 2 6  26 26 26  26 26 26  2 2 6  106 106 106  238 238 238
253 253 253  253 253 253  253 253 253  253 253 253  253 253 253  253 253 253
253 253 253  253 253 253  253 253 253  253 253 253  253 253 253  253 253 253
253 253 253  253 253 253  253 253 253  253 253 253  253 253 253  253 253 253
253 253 253  253 253 253  246 246 246  218 218 218  202 202 202  210 210 210
14 14 14  2 2 6  2 2 6  30 30 30  22 22 22  2 2 6
2 2 6  2 2 6  2 2 6  18 18 18  86 86 86  42 42 42
0 0 0  0 0 0  0 0 0  0 0 0  0 0 0  0 0 0
0 0 0  0 0 0
0 0 0  0 0 0  0 0 0  0 0 0  0 0 0  0 0 0
0 0 0  0 0 0  0 0 0  0 0 0  0 0 0  0 0 0
0 0 0  0 0 0  0 0 0  0 0 0  0 0 0  0 0 0
0 0 0  0 0 0  0 0 0  0 0 0  0 0 0  0 0 0
0 0 0  0 0 0  0 0 0  42 42 42  90 90 90  22 22 22
2 2 6  42 42 42  2 2 6  18 18 18  218 218 218  253 253 253
253 253 253  253 253 253  253 253 253  253 253 253  253 253 253  253 253 253
253 253 253  253 253 253  253 253 253  253 253 253  253 253 253  253 253 253
253 253 253  253 253 253  253 253 253  253 253 253  253 253 253  253 253 253
253 253 253  253 253 253  253 253 253  250 250 250  221 221 221  218 218 218
101 101 101  2 2 6  14 14 14  18 18 18  38 38 38  10 10 10
2 2 6  2 2 6  2 2 6  2 2 6  78 78 78  58 58 58
21 21 21  0 0 0  0 0 0  0 0 0  0 0 0  0 0 0
0 0 0  0 0 0
0 0 0  0 0 0  0 0 0  0 0 0  0 0 0  0 0 0
0 0 0  0 0 0  0 0 0  0 0 0  0 0 0  0 0 0
0 0 0  0 0 0  0 0 0  0 0 0  0 0 0  0 0 0
0 0 0  0 0 0  0 0 0  0 0 0  0 0 0  0 0 0
0 0 0  0 0 0  7 7 7  54 54 54  82 82 82  2 2 6
26 26 26  22 22 22  2 2 6  123 123 123  253 253 253  253 253 253
253 253 253  253 253 253  253 253 253  253 253 253  253 253 253  253 253 253
253 253 253  253 253 253  253 253 253  253 253 253  253 253 253  253 253 253
253 253 253  253 253 253  253 253 253  253 253 253  253 253 253  253 253 253
253 253 253  253 253 253  253 253 253  253 253 253  250 250 250  238 238 238
198 198 198  6 6 6  38 38 38  58 58 58  26 26 26  38 38 38
2 2 6  2 2 6  2 2 6  2 2 6  46 46 46  78 78 78
30 30 30  0 0 0  0 0 0  0 0 0  0 0 0  0 0 0
0 0 0  0 0 0
0 0 0  0 0 0  0 0 0  0 0 0  0 0 0  0 0 0
0 0 0  0 0 0  0 0 0  0 0 0  0 0 0  0 0 0
0 0 0  0 0 0  0 0 0  0 0 0  0 0 0  0 0 0
0 0 0  0 0 0  0 0 0  0 0 0  0 0 0  0 0 0
0 0 0  0 0 0  30 30 30  74 74 74  58 58 58  2 2 6
42 42 42  2 2 6  22 22 22  231 231 231  253 253 253  253 253 253
253 253 253  253 253 253  253 253 253  253 253 253  253 253 253  253 253 253
250 250 250  253 253 253  253 253 253  253 253 253  253 253 253  253 253 253
253 253 253  253 253 253  253 253 253  253 253 253  253 253 253  253 253 253
253 253 253  253 253 253  253 253 253  253 253 253  253 253 253  253 253 253
246 246 246  46 46 46  38 38 38  42 42 42  14 14 14  38 38 38
14 14 14  2 2 6  2 2 6  2 2 6  6 6 6  86 86 86
46 46 46  0 0 0  0 0 0  0 0 0  0 0 0  0 0 0
0 0 0  0 0 0
0 0 0  0 0 0  0 0 0  0 0 0  0 0 0  0 0 0
0 0 0  0 0 0  0 0 0  0 0 0  0 0 0  0 0 0
0 0 0  0 0 0  0 0 0  0 0 0  0 0 0  0 0 0
0 0 0  0 0 0  0 0 0  0 0 0  0 0 0  0 0 0
0 0 0  0 0 0  42 42 42  90 90 90  18 18 18  18 18 18
26 26 26  2 2 6  128 116 117  253 253 253  253 253 253  253 253 253
253 253 253  253 253 253  253 253 253  253 253 253  253 253 253  250 250 250
238 238 238  253 253 253  253 253 253  253 253 253  253 253 253  253 253 253
253 253 253  253 253 253  253 253 253  253 253 253  253 253 253  253 253 253
253 253 253  253 253 253  253 253 253  253 253 253  253 253 253  253 253 253
253 253 253  94 94 94  6 6 6  2 2 6  2 2 6  10 10 10
34 34 34  2 2 6  2 2 6  2 2 6  2 2 6  74 74 74
58 58 58  21 21 21  0 0 0  0 0 0  0 0 0  0 0 0
0 0 0  0 0 0
0 0 0  0 0 0  0 0 0  0 0 0  0 0 0  0 0 0
0 0 0  0 0 0  0 0 0  0 0 0  0 0 0  0 0 0
0 0 0  0 0 0  0 0 0  0 0 0  0 0 0  0 0 0
0 0 0  0 0 0  0 0 0  0 0 0  0 0 0  0 0 0
0 0 0  26 26 26  66 66 66  82 82 82  2 2 6  38 38 38
6 6 6  14 14 14  210 210 210  253 253 253  253 253 253  253 253 253
253 253 253  253 253 253  253 253 253  253 253 253  253 253 253  246 246 246
242 242 242  253 253 253  253 253 253  253 253 253  253 253 253  253 253 253
253 253 253  253 253 253  253 253 253  253 253 253  253 253 253  253 253 253
253 253 253  253 253 253  253 253 253  253 253 253  253 253 253  253 253 253
253 253 253  144 144 144  2 2 6  2 2 6  2 2 6  2 2 6
46 46 46  2 2 6  2 2 6  2 2 6  2 2 6  42 42 42
74 74 74  30 30 30  0 0 0  0 0 0  0 0 0  0 0 0
0 0 0  0 0 0
0 0 0  0 0 0  0 0 0  0 0 0  0 0 0  0 0 0
0 0 0  0 0 0  0 0 0  0 0 0  0 0 0  0 0 0
0 0 0  0 0 0  0 0 0  0 0 0  0 0 0  0 0 0
0 0 0  0 0 0  0 0 0  0 0 0  0 0 0  0 0 0
0 0 0  42 42 42  90 90 90  26 26 26  6 6 6  42 42 42
2 2 6  74 74 74  250 250 250  253 253 253  253 253 253  253 253 253
253 253 253  253 253 253  253 253 253  253 253 253  253 253 253  242 242 242
242 242 242  253 253 253  253 253 253  253 253 253  253 253 253  253 253 253
253 253 253  253 253 253  253 253 253  253 253 253  253 253 253  253 253 253
253 253 253  253 253 253  253 253 253  253 253 253  253 253 253  253 253 253
253 253 253  187 187 187  2 2 6  2 2 6  2 2 6  2 2 6
46 46 46  2 2 6  2 2 6  2 2 6  2 2 6  10 10 10
86 86 86  38 38 38  0 0 0  0 0 0  0 0 0  0 0 0
0 0 0  0 0 0
0 0 0  0 0 0  0 0 0  0 0 0  0 0 0  0 0 0
0 0 0  0 0 0  0 0 0  0 0 0  0 0 0  0 0 0
0 0 0  0 0 0  0 0 0  0 0 0  0 0 0  0 0 0
0 0 0  0 0 0  0 0 0  0 0 0  0 0 0  0 0 0
26 26 26  66 66 66  82 82 82  2 2 6  22 22 22  18 18 18
2 2 6  144 144 144  253 253 253  253 253 253  253 253 253  253 253 253
253 253 253  253 253 253  253 253 253  253 253 253  253 253 253  234 234 234
242 242 242  253 253 253  253 253 253  253 253 253  253 253 253  253 253 253
253 253 253  253 253 253  253 253 253  253 253 253  253 253 253  253 253 253
253 253 253  253 253 253  253 253 253  253 253 253  253 253 253  253 253 253
253 253 253  206 206 206  2 2 6  2 2 6  2 2 6  2 2 6
38 38 38  2 2 6  2 2 6  2 2 6  2 2 6  6 6 6
86 86 86  46 46 46  0 0 0  0 0 0  0 0 0  0 0 0
0 0 0  0 0 0
0 0 0  0 0 0  0 0 0  0 0 0  0 0 0  0 0 0
0 0 0  0 0 0  0 0 0  0 0 0  0 0 0  0 0 0
0 0 0  0 0 0  0 0 0  0 0 0  0 0 0  0 0 0
0 0 0  0 0 0  0 0 0  0 0 0  0 0 0  7 7 7
46 46 46  86 86 86  18 18 18  2 2 6  34 34 34  10 10 10
6 6 6  210 210 210  253 253 253  253 253 253  253 253 253  253 253 253
253 253 253  253 253 253  253 253 253  253 253 253  253 253 253  234 234 234
242 242 242  253 253 253  253 253 253  253 253 253  253 253 253  253 253 253
253 253 253  253 253 253  253 253 253  253 253 253  253 253 253  253 253 253
253 253 253  253 253 253  253 253 253  253 253 253  253 253 253  253 253 253
253 253 253  221 221 221  6 6 6  2 2 6  2 2 6  6 6 6
30 30 30  2 2 6  2 2 6  2 2 6  2 2 6  2 2 6
82 82 82  54 54 54  7 7 7  0 0 0  0 0 0  0 0 0
0 0 0  0 0 0
0 0 0  0 0 0  0 0 0  0 0 0  0 0 0  0 0 0
0 0 0  0 0 0  0 0 0  0 0 0  0 0 0  0 0 0
0 0 0  0 0 0  0 0 0  0 0 0  0 0 0  0 0 0
0 0 0  0 0 0  0 0 0  0 0 0  0 0 0  26 26 26
66 66 66  62 62 62  2 2 6  2 2 6  38 38 38  10 10 10
26 26 26  238 238 238  253 253 253  253 253 253  253 253 253  253 253 253
253 253 253  253 253 253  253 253 253  253 253 253  253 253 253  231 231 231
238 238 238  253 253 253  253 253 253  253 253 253  253 253 253  253 253 253
253 253 253  253 253 253  253 253 253  253 253 253  253 253 253  253 253 253
253 253 253  253 253 253  253 253 253  253 253 253  253 253 253  253 253 253
253 253 253  231 231 231  6 6 6  2 2 6  2 2 6  10 10 10
30 30 30  2 2 6  2 2 6  2 2 6  2 2 6  2 2 6
66 66 66  58 58 58  21 21 21  0 0 0  0 0 0  0 0 0
0 0 0  0 0 0
0 0 0  0 0 0  0 0 0  0 0 0  0 0 0  0 0 0
0 0 0  0 0 0  0 0 0  0 0 0  0 0 0  0 0 0
0 0 0  0 0 0  0 0 0  0 0 0  0 0 0  0 0 0
0 0 0  0 0 0  0 0 0  0 0 0  0 0 0  38 38 38
78 78 78  6 6 6  2 2 6  2 2 6  46 46 46  14 14 14
42 42 42  246 246 246  253 253 253  253 253 253  253 253 253  253 253 253
253 253 253  253 253 253  253 253 253  253 253 253  253 253 253  231 231 231
242 242 242  253 253 253  253 253 253  253 253 253  253 253 253  253 253 253
253 253 253  253 253 253  253 253 253  253 253 253  253 253 253  253 253 253
253 253 253  253 253 253  253 253 253  253 253 253  253 253 253  253 253 253
253 253 253  234 234 234  10 10 10  2 2 6  2 2 6  22 22 22
14 14 14  2 2 6  2 2 6  2 2 6  2 2 6  2 2 6
66 66 66  62 62 62  21 21 21  0 0 0  0 0 0  0 0 0
0 0 0  0 0 0
0 0 0  0 0 0  0 0 0  0 0 0  0 0 0  0 0 0
0 0 0  0 0 0  0 0 0  0 0 0  0 0 0  0 0 0
0 0 0  0 0 0  0 0 0  0 0 0  0 0 0  0 0 0
0 0 0  0 0 0  0 0 0  0 0 0  7 7 7  50 50 50
74 74 74  2 2 6  2 2 6  14 14 14  70 70 70  34 34 34
62 62 62  250 250 250  253 253 253  253 253 253  253 253 253  253 253 253
253 253 253  253 253 253  253 253 253  253 253 253  253 253 253  231 231 231
246 246 246  253 253 253  253 253 253  253 253 253  253 253 253  253 253 253
253 253 253  253 253 253  253 253 253  253 253 253  253 253 253  253 253 253
253 253 253  253 253 253  253 253 253  253 253 253  253 253 253  253 253 253
253 253 253  234 234 234  14 14 14  2 2 6  2 2 6  30 30 30
2 2 6  2 2 6  2 2 6  2 2 6  2 2 6  2 2 6
66 66 66  62 62 62  21 21 21  0 0 0  0 0 0  0 0 0
0 0 0  0 0 0
0 0 0  0 0 0  0 0 0  0 0 0  0 0 0  0 0 0
0 0 0  0 0 0  0 0 0  0 0 0  0 0 0  0 0 0
0 0 0  0 0 0  0 0 0  0 0 0  0 0 0  0 0 0
0 0 0  0 0 0  0 0 0  0 0 0  7 7 7  54 54 54
62 62 62  2 2 6  2 2 6  2 2 6  30 30 30  46 46 46
70 70 70  250 250 250  253 253 253  253 253 253  253 253 253  253 253 253
253 253 253  253 253 253  253 253 253  253 253 253  253 253 253  231 231 231
246 246 246  253 253 253  253 253 253  253 253 253  253 253 253  253 253 253
253 253 253  253 253 253  253 253 253  253 253 253  253 253 253  253 253 253
253 253 253  253 253 253  253 253 253  253 253 253  253 253 253  253 253 253
253 253 253  226 226 226  10 10 10  2 2 6  6 6 6  30 30 30
2 2 6  2 2 6  2 2 6  2 2 6  2 2 6  2 2 6
66 66 66  58 58 58  21 21 21  0 0 0  0 0 0  0 0 0
0 0 0  0 0 0
0 0 0  0 0 0  0 0 0  0 0 0  0 0 0  0 0 0
0 0 0  0 0 0  0 0 0  0 0 0  0 0 0  0 0 0
0 0 0  0 0 0  0 0 0  0 0 0  0 0 0  0 0 0
0 0 0  0 0 0  0 0 0  0 0 0  21 21 21  58 58 58
62 62 62  2 2 6  2 2 6  2 2 6  2 2 6  30 30 30
78 78 78  250 250 250  253 253 253  253 253 253  253 253 253  253 253 253
253 253 253  253 253 253  253 253 253  253 253 253  253 253 253  231 231 231
246 246 246  253 253 253  253 253 253  253 253 253  253 253 253  253 253 253
253 253 253  253 253 253  253 253 253  253 253 253  253 253 253  253 253 253
253 253 253  253 253 253  253 253 253  253 253 253  253 253 253  253 253 253
253 253 253  206 206 206  2 2 6  22 22 22  34 34 34  14 14 14
22 22 22  26 26 26  18 18 18  6 6 6  2 2 6  2 2 6
82 82 82  54 54 54  7 7 7  0 0 0  0 0 0  0 0 0
0 0 0  0 0 0
0 0 0  0 0 0  0 0 0  0 0 0  0 0 0  0 0 0
0 0 0  0 0 0  0 0 0  0 0 0  0 0 0  0 0 0
0 0 0  0 0 0  0 0 0  0 0 0  0 0 0  0 0 0
0 0 0  0 0 0  0 0 0  0 0 0  26 26 26  62 62 62
106 106 106  88 42 13  185 133 11  210 166 10  116 81 8  6 6 6
62 62 62  238 238 238  253 253 253  253 253 253  253 253 253  253 253 253
253 253 253  253 253 253  253 253 253  253 253 253  253 253 253  231 231 231
246 246 246  253 253 253  253 253 253  253 253 253  253 253 253  253 253 253
253 253 253  253 253 253  253 253 253  253 253 253  253 253 253  253 253 253
253 253 253  253 253 253  253 253 253  253 253 253  253 253 253  253 253 253
253 253 253  144 144 144  18 18 18  14 14 14  2 2 6  2 2 6
2 2 6  6 6 6  18 18 18  66 66 66  38 38 38  6 6 6
94 94 94  50 50 50  7 7 7  0 0 0  0 0 0  0 0 0
0 0 0  0 0 0
0 0 0  0 0 0  0 0 0  0 0 0  0 0 0  0 0 0
0 0 0  0 0 0  0 0 0  0 0 0  0 0 0  0 0 0
0 0 0  0 0 0  0 0 0  0 0 0  0 0 0  0 0 0
0 0 0  0 0 0  0 0 0  7 7 7  38 38 38  78 78 78
128 116 117  216 158 10  242 186 14  246 190 14  246 190 14  163 110 8
10 10 10  90 90 90  238 238 238  253 253 253  253 253 253  253 253 253
253 253 253  253 253 253  253 253 253  253 253 253  253 253 253  231 231 231
250 250 250  253 253 253  253 253 253  253 253 253  253 253 253  253 253 253
253 253 253  253 253 253  253 253 253  253 253 253  253 253 253  253 253 253
253 253 253  253 253 253  253 253 253  253 253 253  248 217 171  237 200 89
237 200 89  171 133 51  52 14 10  2 2 6  2 2 6  2 2 6
2 2 6  2 2 6  2 2 6  38 38 38  46 46 46  26 26 26
106 106 106  54 54 54  7 7 7  0 0 0  0 0 0  0 0 0
0 0 0  0 0 0
0 0 0  0 0 0  0 0 0  0 0 0  0 0 0  0 0 0
0 0 0  0 0 0  0 0 0  0 0 0  0 0 0  0 0 0
0 0 0  0 0 0  0 0 0  0 0 0  0 0 0  0 0 0
21 21 21  30 30 30  38 38 38  50 50 50  70 70 70  106 106 106
185 146 29  226 170 11  242 186 14  246 190 14  246 190 14  246 190 14
156 107 11  6 6 6  74 74 74  226 226 226  253 253 253  253 253 253
253 253 253  253 253 253  253 253 253  253 253 253  253 253 253  231 231 231
250 250 250  253 253 253  253 253 253  253 253 253  253 253 253  253 253 253
253 253 253  253 253 253  253 253 253  253 253 253  253 253 253  253 253 253
253 253 253  253 253 253  253 253 253  253 253 253  238 189 71  241 196 14
241 208 19  232 195 16  26 26 26  2 2 6  2 2 6  2 2 6
2 2 6  2 2 6  6 6 6  30 30 30  26 26 26  210 166 10
176 134 101  66 66 66  26 26 26  0 0 0  0 0 0  0 0 0
0 0 0  0 0 0
0 0 0  0 0 0  0 0 0  0 0 0  0 0 0  0 0 0
0 0 0  0 0 0  0 0 0  0 0 0  0 0 0  0 0 0
0 0 0  0 0 0  0 0 0  0 0 0  7 7 7  38 38 38
58 58 58  78 78 78  86 86 86  101 101 101  123 123 123  171 133 51
210 150 10  230 174 11  246 186 14  246 190 14  246 190 14  246 190 14
236 186 11  97 70 12  2 2 6  46 46 46  198 198 198  253 253 253
253 253 253  253 253 253  253 253 253  253 253 253  253 253 253  234 234 234
242 242 242  253 253 253  253 253 253  253 253 253  253 253 253  253 253 253
253 253 253  253 253 253  253 253 253  253 253 253  253 253 253  253 253 253
253 253 253  253 253 253  253 253 253  253 253 253  238 189 71  242 186 14
241 196 14  210 166 10  14 14 14  2 2 6  2 2 6  2 2 6
2 2 6  2 2 6  2 2 6  6 6 6  116 81 8  241 196 14
232 195 16  82 82 82  34 34 34  0 0 0  0 0 0  0 0 0
0 0 0  0 0 0
0 0 0  0 0 0  0 0 0  0 0 0  0 0 0  0 0 0
0 0 0  0 0 0  0 0 0  0 0 0  0 0 0  0 0 0
0 0 0  0 0 0  0 0 0  0 0 0  38 38 38  70 70 70
154 122 43  185 146 29  200 144 11  197 138 11  197 138 11  213 154 11
226 170 11  242 186 14  246 190 14  246 190 14  246 190 14  246 190 14
246 190 14  226 170 11  52 14 10  2 2 6  22 22 22  144 144 144
250 250 250  253 253 253  253 253 253  253 253 253  253 253 253  253 253 253
253 253 253  253 253 253  253 253 253  253 253 253  253 253 253  253 253 253
253 253 253  253 253 253  253 253 253  253 253 253  253 253 253  253 253 253
253 253 253  253 253 253  250 250 250  242 242 242  238 189 71  239 182 13
236 186 11  213 154 11  52 14 10  2 2 6  2 2 6  2 2 6
2 2 6  2 2 6  2 2 6  88 42 13  226 170 11  236 186 11
236 186 11  122 102 70  42 42 42  0 0 0  0 0 0  0 0 0
0 0 0  0 0 0
0 0 0  0 0 0  0 0 0  0 0 0  0 0 0  0 0 0
0 0 0  0 0 0  0 0 0  0 0 0  0 0 0  0 0 0
0 0 0  0 0 0  0 0 0  21 21 21  54 54 54  154 122 43
213 154 11  226 170 11  230 174 11  226 170 11  226 170 11  236 178 12
242 186 14  246 190 14  246 190 14  246 190 14  246 190 14  246 190 14
246 190 14  241 196 14  185 133 11  10 10 10  2 2 6  6 6 6
128 116 117  242 242 242  253 253 253  253 253 253  253 253 253  253 253 253
253 253 253  253 253 253  253 253 253  253 253 253  253 253 253  253 253 253
253 253 253  253 253 253  253 253 253  253 253 253  253 253 253  253 253 253
253 253 253  253 253 253  231 231 231  198 198 198  201 174 68  236 178 12
236 178 12  210 150 10  151 92 20  14 14 14  2 2 6  2 2 6
2 2 6  6 6 6  88 42 13  200 144 11  236 178 12  239 182 13
239 182 13  124 112 88  58 58 58  21 21 21  0 0 0  0 0 0
0 0 0  0 0 0
0 0 0  0 0 0  0 0 0  0 0 0  0 0 0  0 0 0
0 0 0  0 0 0  0 0 0  0 0 0  0 0 0  0 0 0
0 0 0  0 0 0  0 0 0  30 30 30  70 70 70  179 143 27
226 170 11  239 182 13  242 186 14  242 186 14  246 186 14  246 190 14
246 190 14  246 190 14  246 190 14  246 190 14  246 190 14  246 190 14
246 190 14  246 190 14  232 195 16  104 69 6  2 2 6  2 2 6
2 2 6  66 66 66  221 221 221  253 253 253  253 253 253  253 253 253
253 253 253  253 253 253  253 253 253  253 253 253  253 253 253  253 253 253
253 253 253  253 253 253  253 253 253  253 253 253  253 253 253  253 253 253
253 253 253  253 253 253  206 206 206  198 198 198  201 174 68  230 174 11
230 174 11  216 158 10  192 133 9  163 110 8  116 81 8  97 70 12
116 81 8  167 114 7  197 138 11  226 170 11  239 182 13  242 186 14
242 186 14  176 134 101  78 78 78  34 34 34  0 0 0  0 0 0
0 0 0  0 0 0
0 0 0  0 0 0  0 0 0  0 0 0  0 0 0  0 0 0
0 0 0  0 0 0  0 0 0  0 0 0  0 0 0  0 0 0
0 0 0  0 0 0  0 0 0  30 30 30  78 78 78  185 146 29
226 170 11  239 182 13  246 190 14  246 190 14  246 190 14  246 190 14
246 190 14  246 190 14  246 190 14  246 190 14  246 190 14  246 190 14
246 190 14  246 190 14  241 196 14  210 166 10  14 14 14  2 2 6
2 2 6  2 2 6  38 38 38  218 218 218  253 253 253  253 253 253
253 253 253  253 253 253  253 253 253  253 253 253  253 253 253  253 253 253
253 253 253  253 253 253  253 253 253  253 253 253  253 253 253  253 253 253
253 253 253  250 250 250  206 206 206  198 198 198  201 174 68  226 170 11
236 178 12  224 166 10  210 150 10  200 144 11  197 138 11  192 133 9
197 138 11  210 150 10  226 170 11  242 186 14  246 190 14  246 190 14
246 186 14  226 170 11  124 112 88  62 62 62  30 30 30  0 0 0
0 0 0  0 0 0
0 0 0  0 0 0  0 0 0  0 0 0  0 0 0  0 0 0
0 0 0  0 0 0  0 0 0  0 0 0  0 0 0  0 0 0
0 0 0  0 0 0  0 0 0  30 30 30  78 78 78  171 133 51
224 166 10  239 182 13  246 190 14  246 190 14  246 190 14  246 190 14
246 190 14  246 190 14  246 190 14  246 190 14  246 190 14  246 190 14
246 190 14  246 190 14  246 190 14  241 196 14  151 92 20  2 2 6
2 2 6  2 2 6  2 2 6  78 78 78  250 250 250  253 253 253
253 253 253  253 253 253  253 253 253  253 253 253  253 253 253  253 253 253
253 253 253  253 253 253  253 253 253  253 253 253  253 253 253  253 253 253
253 253 253  250 250 250  214 214 214  198 198 198  198 141 53  219 162 10
236 178 12  230 174 11  224 166 10  216 158 10  213 154 11  213 154 11
216 158 10  226 170 11  239 182 13  246 190 14  246 190 14  246 190 14
246 190 14  242 186 14  198 141 53  101 101 101  58 58 58  30 30 30
0 0 0  0 0 0
0 0 0  0 0 0  0 0 0  0 0 0  0 0 0  0 0 0
0 0 0  0 0 0  0 0 0  0 0 0  0 0 0  0 0 0
0 0 0  0 0 0  0 0 0  30 30 30  74 74 74  171 133 51
216 158 10  236 178 12  246 190 14  246 190 14  246 190 14  246 190 14
246 190 14  246 190 14  246 190 14  246 190 14  246 190 14  246 190 14
246 190 14  246 190 14  246 190 14  241 196 14  226 184 21  88 42 13
2 2 6  2 2 6  2 2 6  22 22 22  238 238 238  253 253 253
253 253 253  253 253 253  253 253 253  253 253 253  253 253 253  253 253 253
253 253 253  253 253 253  253 253 253  253 253 253  253 253 253  253 253 253
253 253 253  253 253 253  226 226 226  187 187 187  179 143 27  216 158 10
236 178 12  239 182 13  236 178 12  230 174 11  226 170 11  226 170 11
230 174 11  236 178 12  242 186 14  246 190 14  246 190 14  246 190 14
246 190 14  246 186 14  239 182 13  198 141 53  106 106 106  66 66 66
34 34 34  0 0 0
0 0 0  0 0 0  0 0 0  0 0 0  0 0 0  0 0 0
0 0 0  0 0 0  0 0 0  0 0 0  0 0 0  0 0 0
0 0 0  0 0 0  0 0 0  26 26 26  70 70 70  171 133 51
213 154 11  236 178 12  246 190 14  246 190 14  246 190 14  246 190 14
246 190 14  246 190 14  246 190 14  246 190 14  246 190 14  246 190 14
246 190 14  246 190 14  246 190 14  246 190 14  241 196 14  200 144 11
14 14 14  2 2 6  2 2 6  46 46 46  246 246 246  253 253 253
253 253 253  253 253 253  253 253 253  253 253 253  253 253 253  253 253 253
253 253 253  253 253 253  253 253 253  253 253 253  253 253 253  253 253 253
253 253 253  253 253 253  221 221 221  86 86 86  156 107 11  216 158 10
236 178 12  242 186 14  246 186 14  242 186 14  239 182 13  239 182 13
242 186 14  242 186 14  246 186 14  246 190 14  246 190 14  246 190 14
246 190 14  246 190 14  246 190 14  242 186 14  226 170 11  124 112 88
66 66 66  30 30 30
0 0 0  0 0 0  0 0 0  0 0 0  0 0 0  0 0 0
0 0 0  0 0 0  0 0 0  0 0 0  0 0 0  0 0 0
0 0 0  0 0 0  0 0 0  26 26 26  70 70 70  171 133 51
210 150 10  236 178 12  246 190 14  246 190 14  246 190 14  246 190 14
246 190 14  246 190 14  246 190 14  246 190 14  246 190 14  246 190 14
246 190 14  246 190 14  246 190 14  246 190 14  246 190 14  232 195 16
116 81 8  34 34 34  106 106 106  221 221 221  253 253 253  253 253 253
253 253 253  253 253 253  253 253 253  253 253 253  253 253 253  253 253 253
253 253 253  253 253 253  253 253 253  253 253 253  253 253 253  253 253 253
253 253 253  242 242 242  82 82 82  14 14 14  163 110 8  216 158 10
236 178 12  242 186 14  246 190 14  246 190 14  246 190 14  246 190 14
246 190 14  246 190 14  246 190 14  246 190 14  246 190 14  246 190 14
246 190 14  246 190 14  246 190 14  246 190 14  246 190 14  242 186 14
171 133 51  46 46 46
0 0 0  0 0 0  0 0 0  0 0 0  0 0 0  0 0 0
0 0 0  0 0 0  0 0 0  0 0 0  0 0 0  0 0 0
0 0 0  0 0 0  0 0 0  30 30 30  78 78 78  171 133 51
210 150 10  236 178 12  246 186 14  246 190 14  246 190 14  246 190 14
246 190 14  246 190 14  246 190 14  246 190 14  246 190 14  246 190 14
246 190 14  246 190 14  246 190 14  246 190 14  246 190 14  241 196 14
210 166 10  202 170 152  253 253 253  253 253 253  253 253 253  253 253 253
253 253 253  253 253 253  253 253 253  253 253 253  253 253 253  253 253 253
253 253 253  253 253 253  253 253 253  253 253 253  253 253 253  253 253 253
218 218 218  58 58 58  2 2 6  14 14 14  167 114 7  216 158 10
236 178 12  246 186 14  246 190 14  246 190 14  246 190 14  246 190 14
246 190 14  246 190 14  246 190 14  246 190 14  246 190 14  246 190 14
246 190 14  246 190 14  246 190 14  246 190 14  246 186 14  242 186 14
198 141 53  54 54 54
0 0 0  0 0 0  0 0 0  0 0 0  0 0 0  0 0 0
0 0 0  0 0 0  0 0 0  0 0 0  0 0 0  0 0 0
0 0 0  0 0 0  0 0 0  38 38 38  86 86 86  179 143 27
213 154 11  236 178 12  246 186 14  246 190 14  246 190 14  246 190 14
246 190 14  246 190 14  246 190 14  246 190 14  246 190 14  246 190 14
246 190 14  246 190 14  246 190 14  246 190 14  246 190 14  246 190 14
232 195 16  200 144 11  214 214 214  253 253 253  253 253 253  253 253 253
253 253 253  253 253 253  253 253 253  253 253 253  253 253 253  253 253 253
253 253 253  253 253 253  253 253 253  253 253 253  250 250 250  192 181 182
26 26 26  2 2 6  2 2 6  52 14 10  163 110 8  219 162 10
239 182 13  246 186 14  246 190 14  246 190 14  246 190 14  246 190 14
246 190 14  246 190 14  246 190 14  246 190 14  246 190 14  246 190 14
246 190 14  246 190 14  246 190 14  246 186 14  236 178 12  224 166 10
124 112 88  46 46 46
0 0 0  0 0 0  0 0 0  0 0 0  0 0 0  0 0 0
0 0 0  0 0 0  0 0 0  0 0 0  0 0 0  0 0 0
0 0 0  0 0 0  7 7 7  50 50 50  101 101 101  192 133 9
224 166 10  242 186 14  246 190 14  246 190 14  246 190 14  246 190 14
246 190 14  246 190 14  246 190 14  246 190 14  246 190 14  246 190 14
246 190 14  246 190 14  246 190 14  246 190 14  246 190 14  242 186 14
226 184 21  210 166 10  154 122 43  226 226 226  253 253 253  253 253 253
253 253 253  253 253 253  253 253 253  253 253 253  253 253 253  253 253 253
253 253 253  253 253 253  253 253 253  198 198 198  66 66 66  2 2 6
2 2 6  2 2 6  2 2 6  52 14 10  156 107 11  219 162 10
239 182 13  246 186 14  246 190 14  246 190 14  246 190 14  246 190 14
246 190 14  246 190 14  246 190 14  246 190 14  246 190 14  246 190 14
246 190 14  246 190 14  242 186 14  230 174 11  213 154 11  154 122 43
66 66 66  30 30 30
0 0 0  0 0 0  0 0 0  0 0 0  0 0 0  0 0 0
0 0 0  0 0 0  0 0 0  0 0 0  0 0 0  0 0 0
0 0 0  0 0 0  21 21 21  58 58 58  154 122 43  206 145 10
230 174 11  242 186 14  246 186 14  246 190 14  246 190 14  246 190 14
246 190 14  246 190 14  246 190 14  246 190 14  246 190 14  246 190 14
246 190 14  246 190 14  246 190 14  246 190 14  246 190 14  246 186 14
236 178 12  210 166 10  163 110 8  88 42 13  144 144 144  218 218 218
250 250 250  253 253 253  253 253 253  253 253 253  250 250 250  242 242 242
210 210 210  144 144 144  66 66 66  6 6 6  2 2 6  2 2 6
2 2 6  2 2 6  2 2 6  88 42 13  163 110 8  216 158 10
236 178 12  246 190 14  246 190 14  246 190 14  246 190 14  246 190 14
246 190 14  246 190 14  246 190 14  246 190 14  246 190 14  246 190 14
239 182 13  230 174 11  216 158 10  185 146 29  124 112 88  70 70 70
38 38 38  7 7 7
0 0 0  0 0 0  0 0 0  0 0 0  0 0 0  0 0 0
0 0 0  0 0 0  0 0 0  0 0 0  0 0 0  0 0 0
0 0 0  0 0 0  21 21 21  62 62 62  171 133 51  206 145 10
224 166 10  236 178 12  239 182 13  242 186 14  242 186 14  246 186 14
246 190 14  246 190 14  246 190 14  246 190 14  246 190 14  246 190 14
246 190 14  246 190 14  246 190 14  246 190 14  246 190 14  246 190 14
236 178 12  216 158 10  167 114 7  88 42 13  2 2 6  6 6 6
30 30 30  54 54 54  62 62 62  50 50 50  38 38 38  14 14 14
2 2 6  2 2 6  2 2 6  2 2 6  2 2 6  2 2 6
2 2 6  2 2 6  6 6 6  88 42 13  167 114 7  213 154 11
236 178 12  246 190 14  246 190 14  246 190 14  246 190 14  246 190 14
246 190 14  246 190 14  242 186 14  239 182 13  239 182 13  230 174 11
210 150 10  171 133 51  124 112 88  82 82 82  54 54 54  34 34 34
7 7 7  0 0 0
0 0 0  0 0 0  0 0 0  0 0 0  0 0 0  0 0 0
0 0 0  0 0 0  0 0 0  0 0 0  0 0 0  0 0 0
0 0 0  0 0 0  7 7 7  50 50 50  154 122 43  192 133 9
200 144 11  216 158 10  219 162 10  224 166 10  226 170 11  230 174 11
236 178 12  239 182 13  239 182 13  242 186 14  246 186 14  246 190 14
246 190 14  246 190 14  246 190 14  246 190 14  246 190 14  246 186 14
230 174 11  210 150 10  163 110 8  104 69 6  10 10 10  2 2 6
2 2 6  2 2 6  2 2 6  2 2 6  2 2 6  2 2 6
2 2 6  2 2 6  2 2 6  2 2 6  2 2 6  2 2 6
2 2 6  2 2 6  6 6 6  97 70 12  167 114 7  206 145 10
230 174 11  242 186 14  246 190 14  246 190 14  246 190 14  246 186 14
242 186 14  239 182 13  230 174 11  224 166 10  213 154 11  179 143 27
124 112 88  86 86 86  58 58 58  38 38 38  21 21 21  0 0 0
0 0 0  0 0 0
0 0 0  0 0 0  0 0 0  0 0 0  0 0 0  0 0 0
0 0 0  0 0 0  0 0 0  0 0 0  0 0 0  0 0 0
0 0 0  0 0 0  0 0 0  34 34 34  70 70 70  154 122 43
154 122 43  167 114 7  185 133 11  192 133 9  197 138 11  200 144 11
206 145 10  213 154 11  219 162 10  224 166 10  230 174 11  239 182 13
242 186 14  246 186 14  246 186 14  246 186 14  246 186 14  239 182 13
216 158 10  185 133 11  156 107 11  104 69 6  14 14 14  2 2 6
2 2 6  2 2 6  2 2 6  2 2 6  2 2 6  2 2 6
2 2 6  2 2 6  2 2 6  2 2 6  2 2 6  2 2 6
2 2 6  2 2 6  6 6 6  88 42 13  156 107 11  192 133 9
219 162 10  236 178 12  239 182 13  246 186 14  242 186 14  239 182 13
236 178 12  224 166 10  206 145 10  192 133 9  154 122 43  94 94 94
62 62 62  42 42 42  21 21 21  0 0 0  0 0 0  0 0 0
0 0 0  0 0 0
0 0 0  0 0 0  0 0 0  0 0 0  0 0 0  0 0 0
0 0 0  0 0 0  0 0 0  0 0 0  0 0 0  0 0 0
0 0 0  0 0 0  0 0 0  7 7 7  34 34 34  58 58 58
78 78 78  101 98 89  124 112 88  154 122 43  156 107 11  163 110 8
167 114 7  167 114 7  185 133 11  185 133 11  197 138 11  210 150 10
219 162 10  226 170 11  236 178 12  236 178 12  230 174 11  219 162 10
197 138 11  163 110 8  116 81 8  97 70 12  10 10 10  2 2 6
2 2 6  18 18 18  38 38 38  38 38 38  38 38 38  38 38 38
38 38 38  38 38 38  38 38 38  38 38 38  38 38 38  26 26 26
2 2 6  2 2 6  6 6 6  88 42 13  151 92 20  167 114 7
200 144 11  219 162 10  230 174 11  230 174 11  230 174 11  219 162 10
210 150 10  192 133 9  163 110 8  124 112 88  82 82 82  50 50 50
30 30 30  0 0 0  0 0 0  0 0 0  0 0 0  0 0 0
0 0 0  0 0 0
0 0 0  0 0 0  0 0 0  0 0 0  0 0 0  0 0 0
0 0 0  0 0 0  0 0 0  0 0 0  0 0 0  0 0 0
0 0 0  0 0 0  0 0 0  0 0 0  0 0 0  21 21 21
34 34 34  42 42 42  58 58 58  74 74 74  86 86 86  101 98 89
122 102 70  131 85 48  120 82 21  151 92 20  156 107 11  163 110 8
185 133 11  185 133 11  197 138 11  206 145 10  200 144 11  185 133 11
156 107 11  116 81 8  104 69 6  52 14 10  54 54 54  106 106 106
101 98 89  86 86 86  82 82 82  78 78 78  78 78 78  78 78 78
78 78 78  78 78 78  78 78 78  78 78 78  82 82 82  86 86 86
94 94 94  106 106 106  101 101 101  86 66 32  116 81 8  156 107 11
185 133 11  192 133 9  200 144 11  206 145 10  200 144 11  192 133 9
167 114 7  151 92 20  101 101 101  70 70 70  42 42 42  21 21 21
0 0 0  0 0 0  0 0 0  0 0 0  0 0 0  0 0 0
0 0 0  0 0 0
0 0 0  0 0 0  0 0 0  0 0 0  0 0 0  0 0 0
0 0 0  0 0 0  0 0 0  0 0 0  0 0 0  0 0 0
0 0 0  0 0 0  0 0 0  0 0 0  0 0 0  0 0 0
0 0 0  0 0 0  21 21 21  30 30 30  38 38 38  50 50 50
62 62 62  74 74 74  90 90 90  101 98 89  122 102 70  120 82 21
116 81 8  151 92 20  156 107 11  156 107 11  156 107 11  151 92 20
116 81 8  104 69 6  86 66 32  101 98 89  82 82 82  58 58 58
46 46 46  38 38 38  34 34 34  34 34 34  34 34 34  34 34 34
34 34 34  34 34 34  34 34 34  34 34 34  34 34 34  38 38 38
42 42 42  54 54 54  82 82 82  86 86 86  97 70 12  116 81 8
156 107 11  167 114 7  167 114 7  167 114 7  167 114 7  156 107 11
120 82 21  101 98 89  62 62 62  34 34 34  7 7 7  0 0 0
0 0 0  0 0 0  0 0 0  0 0 0  0 0 0  0 0 0
0 0 0  0 0 0
0 0 0  0 0 0  0 0 0  0 0 0  0 0 0  0 0 0
0 0 0  0 0 0  0 0 0  0 0 0  0 0 0  0 0 0
0 0 0  0 0 0  0 0 0  0 0 0  0 0 0  0 0 0
0 0 0  0 0 0  0 0 0  0 0 0  0 0 0  7 7 7
21 21 21  30 30 30  42 42 42  50 50 50  66 66 66  86 86 86
101 98 89  109 80 70  104 69 6  104 69 6  104 69 6  104 69 6
97 70 12  86 66 32  90 90 90  62 62 62  38 38 38  21 21 21
0 0 0  0 0 0  0 0 0  0 0 0  0 0 0  0 0 0
0 0 0  0 0 0  0 0 0  0 0 0  0 0 0  0 0 0
0 0 0  21 21 21  42 42 42  70 70 70  78 78 78  88 42 13
104 69 6  116 81 8  151 92 20  116 81 8  116 81 8  109 80 70
86 86 86  58 58 58  30 30 30  0 0 0  0 0 0  0 0 0
0 0 0  0 0 0  0 0 0  0 0 0  0 0 0  0 0 0
0 0 0  0 0 0
0 0 0  0 0 0  0 0 0  0 0 0  0 0 0  0 0 0
0 0 0  0 0 0  0 0 0  0 0 0  0 0 0  0 0 0
0 0 0  0 0 0  0 0 0  0 0 0  0 0 0  0 0 0
0 0 0  0 0 0  0 0 0  0 0 0  0 0 0  0 0 0
0 0 0  0 0 0  0 0 0  7 7 7  26 26 26  38 38 38
54 54 54  70 70 70  86 86 86  86 86 86  78 78 78  78 78 78
86 86 86  74 74 74  50 50 50  30 30 30  0 0 0  0 0 0
0 0 0  0 0 0  0 0 0  0 0 0  0 0 0  0 0 0
0 0 0  0 0 0  0 0 0  0 0 0  0 0 0  0 0 0
0 0 0  0 0 0  7 7 7  34 34 34  58 58 58  82 82 82
78 78 78  78 78 78  78 78 78  109 80 70  86 86 86  74 74 74
50 50 50  26 26 26  0 0 0  0 0 0  0 0 0  0 0 0
0 0 0  0 0 0  0 0 0  0 0 0  0 0 0  0 0 0
0 0 0  0 0 0
0 0 0  0 0 0  0 0 0  0 0 0  0 0 0  0 0 0
0 0 0  0 0 0  0 0 0  0 0 0  0 0 0  0 0 0
0 0 0  0 0 0  0 0 0  0 0 0  0 0 0  0 0 0
0 0 0  0 0 0  0 0 0  0 0 0  0 0 0  0 0 0
0 0 0  0 0 0  0 0 0  0 0 0  0 0 0  0 0 0
7 7 7  30 30 30  38 38 38  46 46 46  54 54 54  50 50 50
42 42 42  30 30 30  7 7 7  0 0 0  0 0 0  0 0 0
0 0 0  0 0 0  0 0 0  0 0 0  0 0 0  0 0 0
0 0 0  0 0 0  0 0 0  0 0 0  0 0 0  0 0 0
0 0 0  0 0 0  0 0 0  0 0 0  26 26 26  38 38 38
50 50 50  58 58 58  58 58 58  54 54 54  42 42 42  30 30 30
7 7 7  0 0 0  0 0 0  0 0 0  0 0 0  0 0 0
0 0 0  0 0 0  0 0 0  0 0 0  0 0 0  0 0 0
0 0 0  0 0 0
